X:5754
T:Salamanca, The
O:england
M:C|
R:Reel
K:D
d3B|AD F/2E/2D AD F/2E/2D|Adcd fedc|BE~E2 BE~E2|B/2c/2d ed Bdeg|\
fB~B2 fB~B2|~f2ef dfag|fdec dAAG|FAEA D3::a|\
afdf gbeg|fdcd BAFB|Addc defg|~a2gb a2fg|\
~a3f ~g3e|~f3e dfag|fdec dAAG|FAEA D3:|


